X:1
T:Jigg in Camilla. SenH.117, A
T:Jigg in Camilla. SenH.117, A
T:in Hand C
C:in Hand C
L:1/8
Q:3/8=80
M:6/8
K:F
V:1 treble 
V:1
 fa/g/f fa/g/f | gb/a/g a2 f | ab/a/g/f/ gec | fg/f/e/d/ ecA | ab/a/g/f/ g/f/e/d/c | %5
 fg/f/e/d/ ecA | g/f/g/a/g FAF | a/g/a/b/a GBG | g/f/g/a/g a=bc' | gc'=b c'2 z | %10
 g/f/g/a/g a/=b/a/b/c' | gc'=b c'3 || ce/d/c ce/d/c | df/e/d e2 c | fa/g/f fa/g/f | gb/a/g a2 f | %16
 f/e/f/a/f BdB | g/f/g/a/g cec | a/g/a/b/a dfd | b/a/b/c'/b ege | c'/b/c'/d'/c' faf | %21
 f/e/f/g/f def | cfe f2 F | f/e/f/g/f/e/ def | cfe f3 |] %25

